Numix/22x22/devices/network-wired-disconnected.svg

<?xml version="1.0" encoding="UTF-8" standalone="no"?>
<!-- Created with Inkscape (http://www.inkscape.org/) -->

<svg
   xmlns:dc="http://purl.org/dc/elements/1.1/"
   xmlns:cc="http://creativecommons.org/ns#"
   xmlns:rdf="http://www.w3.org/1999/02/22-rdf-syntax-ns#"
   xmlns:svg="http://www.w3.org/2000/svg"
   xmlns="http://www.w3.org/2000/svg"
   xmlns:sodipodi="http://sodipodi.sourceforge.net/DTD/sodipodi-0.dtd"
   xmlns:inkscape="http://www.inkscape.org/namespaces/inkscape"
   id="svg7384"
   height="22"
   width="22"
   version="1.1"
   inkscape:version="0.91 r"
   sodipodi:docname="network-wired-disconnected_22x22_2.svg"
   inkscape:export-filename="/home/andreas/wired.png"
   inkscape:export-xdpi="500"
   inkscape:export-ydpi="500">
  <defs
     id="defs12" />
  <sodipodi:namedview
     pagecolor="#ffffff"
     bordercolor="#666666"
     borderopacity="1"
     objecttolerance="10"
     gridtolerance="10"
     guidetolerance="10"
     inkscape:pageopacity="0"
     inkscape:pageshadow="2"
     inkscape:window-width="1215"
     inkscape:window-height="776"
     id="namedview10"
     showgrid="true"
     inkscape:zoom="24.583333"
     inkscape:cx="12"
     inkscape:cy="12"
     inkscape:window-x="65"
     inkscape:window-y="24"
     inkscape:window-maximized="1"
     inkscape:current-layer="svg7384"
     showguides="true">
    <inkscape:grid
       type="xygrid"
       id="grid4141" />
  </sodipodi:namedview>
  <metadata
     id="metadata90">
    <rdf:RDF>
      <cc:Work
         rdf:about="">
        <dc:format>image/svg+xml</dc:format>
        <dc:type
           rdf:resource="http://purl.org/dc/dcmitype/StillImage" />
        <dc:title>Gnome Symbolic Icon Theme</dc:title>
      </cc:Work>
    </rdf:RDF>
  </metadata>
  <title
     id="title9167">Gnome Symbolic Icon Theme</title>
  <g
     inkscape:groupmode="layer"
     id="layer2"
     inkscape:label="Layer 1"
     transform="translate(0,-26)">
    <rect
       style="fill:#f9f9f9;fill-opacity:1"
       id="rect4281"
       width="18"
       height="16"
       x="2.000001"
       y="29.000004" />
  </g>
  <rect
     x="6.000001"
     y="-9.0000038"
     width="1"
     height="4"
     ry="0"
     style="color:#bebebe;opacity:1;fill:#909ea9;fill-opacity:1"
     id="rect6106-8-61"
     transform="scale(1,-1)" />
  <path
     style="color:#bebebe;fill:#909ea9;fill-opacity:1"
     d="M 3.5,20 C 2,20 1,19 1,18 L 1,4 C 1,3 2,2 3.5,2 l 15,0 C 20,2 21,3 21,4 l 0,14 c 0,1 -1,2 -2.5,2 z m 3.5,-4 2,0 0,2 4,0 0,-2 2,0 0,-2 3,0 0,-8 C 18,5 18,4 17,4 L 5,4 C 4,4 4,5 4,6 l 0,8 2.999505,0 z"
     id="path6104"
     inkscape:connector-curvature="0"
     sodipodi:nodetypes="sccccccssccccccccccccccc" />
  <rect
     x="8.9999962"
     y="-9.0000038"
     width="1"
     height="4"
     ry="0"
     style="color:#bebebe;opacity:1;fill:#909ea9;fill-opacity:1"
     id="rect6106-8-61-7"
     transform="scale(1,-1)" />
  <rect
     x="11.999996"
     y="-8.5000038"
     width="1"
     height="3.5"
     ry="0"
     style="color:#bebebe;opacity:1;fill:#909ea9;fill-opacity:1"
     id="rect6106-8-61-6"
     transform="scale(1,-1)" />
  <rect
     x="14.999996"
     y="-9.0000038"
     width="1"
     height="4"
     ry="0"
     style="color:#bebebe;opacity:1;fill:#909ea9;fill-opacity:1"
     id="rect6106-8-61-8"
     transform="scale(1,-1)"
     inkscape:transform-center-x="0.20338983"
     inkscape:transform-center-y="11.877966" />
  <path
     id="path4151"
     d="m 11,13.5 c 0.866665,4e-6 0.941194,-0.0056 1.398556,-0.471117 0.327205,-0.32789 1.512196,-1.528958 1.839403,-1.856854 0.654395,0.655787 1.208488,1.201068 1.862898,1.856854 0.46821,0.465573 0.532489,0.471121 1.399143,0.471117 1.2e-5,-0.866661 -0.0055,-0.933066 -0.473571,-1.398635 -0.654415,-0.655791 -1.208489,-1.201067 -1.862899,-1.856852 0.517014,-0.5326 1.208484,-1.197448 1.862899,-1.853233 0.4682,-0.4619491 0.473583,-0.524613 0.473571,-1.3912801 -0.866654,0 -0.930933,0.00186 -1.399143,0.4637603 C 15.446447,8.119546 14.661864,8.892178 14.237959,9.316989 13.583546,8.661204 13.052967,8.119546 12.398556,7.4637602 11.941194,7.0018117 11.866665,6.9999999 11,6.9999999 c -3e-6,0.8666671 0.01562,0.929331 0.472984,1.3912801 0.327191,0.327894 1.512191,1.525338 1.839397,1.853233 -0.654411,0.655785 -1.184996,1.201061 -1.839397,1.856852 C 11.015617,12.566934 10.999997,12.633339 11,13.5 Z"
     style="fill:#ef555c;fill-opacity:1;fill-rule:evenodd"
     inkscape:connector-curvature="0"
     sodipodi:nodetypes="ccccccccccccccccc" />
</svg>

<?xml version="1.0" encoding="UTF-8" standalone="no"?>
<!-- Created with Inkscape (http://www.inkscape.org/) -->

<svg
   xmlns:dc="http://purl.org/dc/elements/1.1/"
   xmlns:cc="http://creativecommons.org/ns#"
   xmlns:rdf="http://www.w3.org/1999/02/22-rdf-syntax-ns#"
   xmlns:svg="http://www.w3.org/2000/svg"
   xmlns="http://www.w3.org/2000/svg"
   xmlns:sodipodi="http://sodipodi.sourceforge.net/DTD/sodipodi-0.dtd"
   xmlns:inkscape="http://www.inkscape.org/namespaces/inkscape"
   id="svg7384"
   height="22"
   width="22"
   version="1.1"
   inkscape:version="0.91 r"
   sodipodi:docname="network-wired-disconnected_22x22.svg"
   inkscape:export-filename="/home/andreas/wired.png"
   inkscape:export-xdpi="500"
   inkscape:export-ydpi="500">
  <defs
     id="defs12" />
  <sodipodi:namedview
     pagecolor="#ffffff"
     bordercolor="#666666"
     borderopacity="1"
     objecttolerance="10"
     gridtolerance="10"
     guidetolerance="10"
     inkscape:pageopacity="0"
     inkscape:pageshadow="2"
     inkscape:window-width="1215"
     inkscape:window-height="776"
     id="namedview10"
     showgrid="true"
     inkscape:zoom="26.818182"
     inkscape:cx="11"
     inkscape:cy="11"
     inkscape:window-x="65"
     inkscape:window-y="24"
     inkscape:window-maximized="1"
     inkscape:current-layer="layer2"
     showguides="true">
    <inkscape:grid
       type="xygrid"
       id="grid4141" />
  </sodipodi:namedview>
  <metadata
     id="metadata90">
    <rdf:RDF>
      <cc:Work
         rdf:about="">
        <dc:format>image/svg+xml</dc:format>
        <dc:type
           rdf:resource="http://purl.org/dc/dcmitype/StillImage" />
        <dc:title>Gnome Symbolic Icon Theme</dc:title>
      </cc:Work>
    </rdf:RDF>
  </metadata>
  <title
     id="title9167">Gnome Symbolic Icon Theme</title>
  <g
     inkscape:groupmode="layer"
     id="layer2"
     inkscape:label="Layer 1"
     transform="translate(0,-26)">
    <rect
       style="fill:#292929;fill-opacity:1"
       id="rect4281"
       width="18"
       height="16"
       x="2"
       y="29" />
  </g>
  <rect
     x="6"
     y="-9"
     width="1"
     height="4"
     ry="0"
     style="color:#bebebe;opacity:1;fill:#909ea9;fill-opacity:1"
     id="rect6106-8-61"
     transform="scale(1,-1)" />
  <path
     style="color:#bebebe;fill:#909ea9;fill-opacity:1"
     d="M 3.5,20 C 2,20 1,19 1,18 L 1,4.0000002 c 0,-1 1,-2 2.5,-2 l 15,0 c 1.5,0 2.5,1 2.5,2 L 21,18 c 0,1 -1,2 -2.5,2 z m 3.5,-4 2,0 0,2 4,0 0,-2 2,0 0,-2 3,0 0,-7.9999998 c 0,-1 0,-2 -1,-2 l -12,0 c -1,0 -1,1 -1,2 L 4,14 6.999505,14 Z"
     id="path6104"
     inkscape:connector-curvature="0"
     sodipodi:nodetypes="sccccccssccccccccccccccc" />
  <rect
     x="9"
     y="-9"
     width="1"
     height="4"
     ry="0"
     style="color:#bebebe;opacity:1;fill:#909ea9;fill-opacity:1"
     id="rect6106-8-61-7"
     transform="scale(1,-1)" />
  <rect
     x="12"
     y="-9"
     width="1"
     height="4"
     ry="0"
     style="color:#bebebe;opacity:1;fill:#909ea9;fill-opacity:1"
     id="rect6106-8-61-6"
     transform="scale(1,-1)" />
  <rect
     x="15"
     y="-9"
     width="1"
     height="4"
     ry="0"
     style="color:#bebebe;opacity:1;fill:#909ea9;fill-opacity:1"
     id="rect6106-8-61-8"
     transform="scale(1,-1)"
     inkscape:transform-center-x="0.20338983"
     inkscape:transform-center-y="11.877966" />
</svg>
